app/img/icons/benefits-icon-1.svg

<svg width="32" height="32" viewBox="0 0 32 32" fill="none" xmlns="http://www.w3.org/2000/svg">
<path d="M27.1135 6.30549C26.9445 6.13749 26.7455 6.05299 26.5155 6.05299C26.401 6.05299 26.1595 6.14699 25.7925 6.33249C25.425 6.51849 25.035 6.72549 24.6245 6.95649C24.213 7.18599 23.726 7.39399 23.164 7.57999C22.6025 7.76549 22.0825 7.85949 21.604 7.85949C21.162 7.85949 20.772 7.77549 20.436 7.60699C19.3215 7.08499 18.352 6.69549 17.529 6.43849C16.706 6.18199 15.821 6.05299 14.8735 6.05299C13.2375 6.05299 11.374 6.58499 9.285 7.64699C8.854 7.86199 8.545 8.02849 8.345 8.15049L8.1465 6.69499C8.595 6.30549 8.8845 5.73799 8.8845 5.09749C8.8845 3.92399 7.9335 2.97299 6.76 2.97299C5.5865 2.97299 4.6355 3.92399 4.6355 5.09749C4.6355 5.86299 5.0445 6.52849 5.6515 6.90249L8.5215 27.9475C8.607 28.574 9.143 29.0285 9.7585 29.0285C9.8145 29.0285 9.8715 29.025 9.929 29.0175C10.613 28.9235 11.092 28.294 10.9985 27.61L9.845 19.1515C11.938 18.113 13.7485 17.5895 15.2715 17.5895C15.918 17.5895 16.5485 17.686 17.163 17.881C17.778 18.0765 18.2895 18.2885 18.6965 18.518C19.1035 18.748 19.584 18.961 20.1365 19.155C20.69 19.35 21.2365 19.4475 21.776 19.4475C23.139 19.4475 24.7715 18.934 26.674 17.9075C26.913 17.7835 27.088 17.6615 27.1985 17.542C27.309 17.4225 27.3645 17.2525 27.3645 17.0315V6.90299C27.3645 6.67349 27.281 6.47399 27.1135 6.30549Z" fill="#F0145A"/>
</svg>

<svg xmlns="http://www.w3.org/2000/svg" width="32" height="32" fill="none" xmlns:v="https://vecta.io/nano"><path d="M27.114 6.305a.82.82 0 0 0-.598-.252c-.114 0-.356.094-.723.279l-1.168.624c-.412.23-.899.438-1.46.624s-1.082.28-1.56.28c-.442 0-.832-.084-1.168-.253-1.114-.522-2.084-.911-2.907-1.168s-1.708-.385-2.655-.385c-1.636 0-3.499.532-5.588 1.594l-.94.503-.199-1.455a2.11 2.11 0 0 0 .738-1.598c0-1.173-.951-2.124-2.124-2.124s-2.124.951-2.124 2.125c0 .766.409 1.431 1.016 1.805l2.87 21.045a1.25 1.25 0 0 0 1.237 1.081 1.32 1.32 0 0 0 .171-.011 1.25 1.25 0 0 0 1.069-1.407l-1.153-8.458c2.093-1.038 3.903-1.562 5.426-1.562.646 0 1.277.096 1.892.291s1.127.407 1.534.637.887.443 1.44.637 1.1.293 1.639.293c1.363 0 2.996-.514 4.898-1.54.239-.124.414-.246.524-.365s.166-.29.166-.511V6.903a.82.82 0 0 0-.251-.598z" fill="#f0145a"/></svg>
